X: 23612
T: Lilting Banshee, The
R: jig
M: 6/8
K: Adorian
|:"Am"EAA EAA|"G"BAB G2A|"Em"Bee edB|"G"dBA GED|
"Am"EAA EAA|"G"BAB G2A|"Em"Bee edB|1 "G"dBA "Am"A3:|2 "G"dBA "Am"A2d||
|:"Am"eaa age|"G"dBA G2A|"Em" Bee edB|"D"def "G"gfg|
"Am"eaa age|"G"dBA G2A|"Em"Bee edB|1 "G"dBA "Am"A2d:|2 "G"dBA "A"A3||

